X: 34
T:Traditional Reel
M:4/4
L:1/8
R:Reel
K:A mix
B|"A"A2 ag e2 dB|"G"degd B2 AG|"A"Agab ageg|"G"dBgB "A"A2A:|!
B|"A"A2 Bd e2 dB|"G"degd B2AG|"A"A2 Bd edBe|"G"dBgB "A"A2AB|!
"A"A2 Bd e2 dB|"G"degd B2AG|"A"Agab ageg|"G"dBgB "A"A2A||
